X:1
T:Howley Place, 76.76.77.76
T:Charles Edward Stephens, 1889
T:Howley Place, 76.76.77.76
T:Public Domain
C:Charles Edward Stephens, 1889
Z:Public Domain
%%score ( 1 2 ) ( 3 4 )
L:1/8
M:none
K:C
V:1 treble 
V:2 treble 
V:3 bass 
V:4 bass 
V:1
 E2 (ED) [Cc]2 [B,E]2 | [A,D]2 [^CE]2 [DF]2 (A,B,) | [CG]2 [CE]2 C2 [A,D]2 | [B,E]8 | %4
 [CE]2 (CD) [Ec]2 GF | [Ee]2 [Gc]2 [FA]2 (E^F) | [GB]2 [DG]2 E2 [D^F]2 | [DG]8 | %8
 [EG]2 (ED) [^CA]2 E2 | [DF]2 [EG]2 [FA]4 | [FA]2 (FE) [^DB]2 ^F2 | [EG]2 [^FA]2 [GB]4 | %12
 [GB]2 [Gd]2 [Gc]2 [FB]2 | [Ec]2 [Ad]2 [^Ge]2 (AB) | [ce]2 [Ec]2 [FA]2 [FB]2 | [Ec]8 |] %16
V:2
 E2 G2 x4 | x6 A2 | x4 C2 x2 | x8 | x2 G2 x d2 x | x6 c2 | x4 E2 x2 | x8 | x2 _B2 x E2 x | x8 | %10
 x2 c2 x ^F2 x | x8 | x8 | x6 f2 | x8 | x8 |] %16
V:3
 [C,C]2 (C[B,D]) [A,E]2 G,2 | [F,A,]2 [E,A,]2 [D,A,]2 F,2 | [E,G,]2 [C,G,]2 [A,,A,]2 [F,A,]2 | %3
 [E,^G,]8 | [C,G,]2 ([C,E][B,,D]) [A,,C]2 [G,,B,]2 | [C,C]2 [E,C]2 [F,C]2 [A,C]2 | %6
 [G,D]2 [B,,D]2 [C,C]2 [D,A,]2 | [G,B,]8 | [C,C]2 [G,,_B,]2 [A,,E,]2 [^C,A,]2 | %9
 [D,A,]2 [C,C]2 [F,C]4 | [D,D]2 [A,,C]2 [B,,^F,]2 [^D,B,]2 | [E,B,]2 [D,D]2 [G,D]4 | %12
 [G,D]2 (G,F,) [E,C]2 [D,D]2 | [A,C]2 [F,A,]2 [E,B,]2 [D,D]2 | [E,G,]2 [A,C]2 [F,C]2 G,2 | %15
 [C,G,]8 |] %16
V:4
 x6 G,2 | x6 F,2 | x8 | x8 | x8 | x8 | x8 | x8 | x8 | x8 | x8 | x8 | x2 B,2 x4 | x8 | x6 G,2 | %15
 x8 |] %16

